!!! OTL: Berkowitz220
!!! Chapter: 1
!!! Section: II
!!! Page: 51
!!! Mode: 
!!! Encoder: DJB
**kern
*staff1
*I"Piano
=1-
*clefC3
*k[f#c#]
*b:
*M2/4
8B/
4d\
8B/
=2
8c#\
4e\
8c#\
=3
8f#\L
16e\L
16d\JJ
8c#/L
8B/J
=4
8d\
4c#\
8r
=5
8B/
4f#\
8d\
=6
8c#\
4g\
8e\
=7
8f#\L
16e\L
16d\JJ
8c#/L
8B/J
=8
8d\L
8c#\J
4B/
==
*-
